X:922
T:Margaret's waltz
R:Waltz
O:Shetland Islands
C:Pat Shuldham Shaw
S:Richard Robinson
Z:Transcription:Richard Robinson(?),arr, Chords:Mike Long
M:3/4
L:1/8
K:A
P:Arr.1
A>F|\
"A"E3F A>B|c4 Ac|"D"B>A F2 A2|"E"B4 A>F|\
"A"E3F A>B|"(F#m)"c4 e>A|"E"c4 B2|"A"A4:|\
c>d|\
"A"e2f2g2|
a2 g2 a2|"D"f>e d2 f2|"E"e3A (3(cBA)|\
"A"A3B c>d|"F#m"e4 c>A|"D"f>e d>c "A"c>e|"E"B4 c>d|
"A"e>A f>A g>A|a>A g>A f>A|"D"e>A d>A c>A|"E"B4 A>F|\
"A"E3F A>B|"(F#m)"c4 e>A|"E"c4 B2|"A"A4|]
P:Arr. 2
A>F|\
"A"E3F A>B|c4 Ac|"D"B>A F2A2|"E"B4 A>F|\
"A"E3F A>B|"(F#m)"c4 e>A|"E"c4 B2|"A"A4:|\
|:c>d|\
"A"e>A f>A g>A|
a>A g>A a>A|"D"f>e d>A f>A|"E"e3A (3(cBA)|\
"A"A3B c>d|"F#m"e4 c>A|"D"f>e d>A "A"c>e|"E"B3B c>d|
"A"e>A f>A g>A|a>A g>A f>A|"D"e>A d>A c>A|"E"B3B A>F|\
"A"E3F A>B|"(F#m)"c4 e>A|"E"c4 B2|"A"A4:|
